X:15006
T:Oyster Girl, The
T:Kingsbury Jig
R:Jig
C:Trad.
O:England
M:6/8
L:1/8
Q:1/8=240
K:G
Bc|:"G"ded B2 G|"D"A2 F D3|"G"G2 G BGB|"D"d2 c A2 d|
"G"ded Bdg|"D"f2 e "C"c2e|"G"d2 B "D7"cBA|"G"G3-G2 d:|
|:"G"Bcd Bcd|"C"e2 c e2c|"D7"ABc ABc|"G"d2 B d2 B|
"G"ded Bdg|"D"f2 e "C"c2 e|"G"d2 B "D7"cBA|"G"G3-G2 d:|
% --------------------------------- P ---------------------------------------

